!!!OTL: Es soll sich halt keiner mit die Lieb abgeben (3-20), S. 52
!!!id: K1157
**kern
*clefG2
*k[b-e-]
*g:
{4d
=1
4g
4g
4a
=2
4b-
4b-
8.dd
16cc
=3
4b-
4a
4a
=4
4a
4g}
=5
{4d
=6
4g
4g
4a
=7
4b-
4b-
8.dd
16cc
=8
4b-
4a
4a
=9
4a
4g}
=10
{4g
=11
4ee-
4ee-
4ee-
=12
4dd
4dd
8dd
8cc
=13
4b-
4b-
8b-
8cc
=14
4b-
4a}
=15
{8dd
8cc
=16
4b-
4a
4a
=17
4a
4g}
=18
{8.dd
16cc
=19
4b-
4a
4a
=20
2g}
=21
{8.d
16d
=22
4g
4b-
4a
=23
2g}
==
*-
!!!minrhy: 16
!!!meters: 3/4 ]  ZZ[6
!!!cut: Es soll sich halt keiner mit die Lieb abgeben (3-20), S. 52
!!!reg: Luxemburg
!!!trd: KINTZELE, Guillaume: An der Ucht, Bd. 3 Luxemburg 1928
!!!rhy1: X__  X__X__X__  X__X__X_.X  X__X__X__  X__X__
!!!rhy2: X__  X__X__X__  X__X__X_.X  X__X__X__  X__X__
!!!key: K1157  16  G 3/4 ]  ZZ[6
!!!mod: SECHSTONSKALA MOLL ?]  AMBITUS[9b
!!!kad: 112111
!!!akz: 13b3b2_13b3b2_6b53b3b_3b2_3b1_11_
!!!fot: 'a__a__b__c__cw_aw_
!!!for: 'a__a__b__aw_aw_aw_
!!!fok: '^a_^a_^a_\__\__^a_
!! PHRAS[AUFTAKTIG]
!!!fkt: Scherz-, Spottlied &uuml;ber die Liebe
!! KINTZELE
!! PR[22] 2K[8] 2G[22] 3K[3] 3G[0] 4A[11] 4Ü[0] 5A[0] 6K[0] 6G[0]
!! 7K[0] 7G[0] 8A[0] MEHR[0] SI[43] ABS[37] SR[30] SP[14]
!! ST[13] 2k[8] 2g[16] 3k[5] 3g[3] 4d[0] 4ü[0] 5d[0] 6k[0] 6g[0]
!! 7k[0] 7g[0] 8d[3] mehr[0] si[35] dm[+8] sr[24] sp[11]
!! 1F[7] 2F[59] 3F[27] 4F[0] LF[0] 2P[7] 3P[0] 4P[0] TRI[0] DF[4] AB[41]
!! TF[0] U3K[0] U3[0] U4[0] U4Ü[0] U5[5] U6K[0] U6[0] U7K[0] U7[5]
!! N1[16] N2K[0] N2[18] N3K[0] N3[16] N4[13] N4Ü[0] N5[18] N6K[0] N6[8]
!!!n7k: 0] N7[0] O1[0] O2K[0] O2[0] O3K[0] O3[0] HÖ[0
!!!RNB: symbol: &uuml;  = u umlaut (UTF-8: Ã¼)
